Sweet-Rainbow/icons/Alacritty.svg

<?xml version="1.0" encoding="UTF-8" standalone="no"?>
<!-- Generator: Gravit.io -->

<svg
   xmlns:dc="http://purl.org/dc/elements/1.1/"
   xmlns:cc="http://creativecommons.org/ns#"
   xmlns:rdf="http://www.w3.org/1999/02/22-rdf-syntax-ns#"
   xmlns:svg="http://www.w3.org/2000/svg"
   xmlns="http://www.w3.org/2000/svg"
   xmlns:sodipodi="http://sodipodi.sourceforge.net/DTD/sodipodi-0.dtd"
   xmlns:inkscape="http://www.inkscape.org/namespaces/inkscape"
   style="isolation:isolate"
   viewBox="0 0 36 36"
   width="48"
   height="48"
   version="1.1"
   id="svg23"
   sodipodi:docname="Alacritty.svg"
   inkscape:version="0.92.4 (5da689c313, 2019-01-14)">
  <metadata
     id="metadata29">
    <rdf:RDF>
      <cc:Work
         rdf:about="">
        <dc:format>image/svg+xml</dc:format>
        <dc:type
           rdf:resource="http://purl.org/dc/dcmitype/StillImage" />
        <dc:title></dc:title>
      </cc:Work>
    </rdf:RDF>
  </metadata>
  <defs
     id="defs27" />
  <sodipodi:namedview
     pagecolor="#ffffff"
     bordercolor="#666666"
     borderopacity="1"
     objecttolerance="10"
     gridtolerance="10"
     guidetolerance="10"
     inkscape:pageopacity="0"
     inkscape:pageshadow="2"
     inkscape:window-width="640"
     inkscape:window-height="480"
     id="namedview25"
     showgrid="false"
     inkscape:zoom="29.365243"
     inkscape:cx="25.325443"
     inkscape:cy="32"
     inkscape:current-layer="svg23"
     units="px" />
  <linearGradient
     id="_lgradient_0"
     x1="0"
     y1="0.5"
     x2="1.1918604"
     y2="0.51249999"
     gradientTransform="matrix(43,0,0,40,2.5,4)"
     gradientUnits="userSpaceOnUse">
    <stop
       offset="0%"
       stop-opacity="1"
       style="stop-color:rgb(88,0,226)"
       id="stop2" />
    <stop
       offset="100%"
       stop-opacity="1"
       style="stop-color:rgb(255,0,230)"
       id="stop4" />
  </linearGradient>
  <linearGradient
     id="_lgradient_1"
     x1="0"
     y1="0.5"
     x2="0.88602746"
     y2="0.60316974"
     gradientTransform="matrix(19.36,0,0,19.15,7.82,12.225)"
     gradientUnits="userSpaceOnUse">
    <stop
       offset="0%"
       stop-opacity="1"
       style="stop-color:rgb(255,229,59)"
       id="stop9" />
    <stop
       offset="98.69565217391305%"
       stop-opacity="1"
       style="stop-color:rgb(255,0,91)"
       id="stop11" />
  </linearGradient>
  <linearGradient
     id="_lgradient_2"
     x1="1"
     y1="1"
     x2="0.037931014"
     y2="-0.14874451"
     gradientTransform="matrix(6.712,4.713,-6.435,9.164,17.222,23.805)"
     gradientUnits="userSpaceOnUse">
    <stop
       offset="0%"
       stop-opacity="1"
       style="stop-color:rgb(0,196,255)"
       id="stop16" />
    <stop
       offset="83.88839793817618%"
       stop-opacity="1"
       style="stop-color:rgb(0,114,255)"
       id="stop18" />
  </linearGradient>
  <g
     id="g839"
     transform="matrix(0.8372093,0,0,0.8372093,-2.0930232,-2.0930232)">
    <path
       id="path7"
       d="m 13.5,8 v 0 c 1.104,0 2,-0.896 2,-2 v 0 c 0,-1.104 -0.896,-2 -2,-2 v 0 h -6 c -2.76,0 -5,2.24 -5,5 v 5 0 c 0,1.104 0.896,2 2,2 v 0 c 1.104,0 2,-0.896 2,-2 v 0 -3 c 0,-1.656 1.344,-3 3,-3 z m 28,13 v 0 c 0,1.104 0.896,2 2,2 v 0 c 1.104,0 2,-0.896 2,-2 V 21 9 c 0,-2.76 -2.24,-5 -5,-5 h -18 v 0 c -1.104,0 -2,0.896 -2,2 v 0 c 0,1.104 0.896,2 2,2 v 0 h 16 c 1.656,0 3,1.344 3,3 z m -11,11 v 0 c -1.104,0 -2,-0.896 -2,-2 v 0 c 0,-1.104 0.896,-2 2,-2 v 0 h 10 c 2.76,0 5,2.24 5,5 v 6 c 0,2.76 -2.24,5 -5,5 h -33 c -2.76,0 -5,-2.24 -5,-5 v -15 0 c 0,-1.104 0.896,-2 2,-2 v 0 c 1.104,0 2,0.896 2,2 v 0 13 c 0,1.656 1.344,3 3,3 h 29 c 1.656,0 3,-1.344 3,-3 v -2 c 0,-1.656 -1.344,-3 -3,-3 z"
       inkscape:connector-curvature="0"
       style="fill:url(#_lgradient_0);fill-rule:evenodd" />
    <path
       id="path14"
       d="m 12.29,29.585 v 0 c -0.496,0.988 -1.7,1.389 -2.685,0.895 v 0 C 8.62,29.986 8.219,28.787 8.71,27.805 v 0 l 6.825,-12.096 c 1.085,-1.923 2.846,-1.923 3.931,0 l 6.824,12.096 v 0 c 0.491,0.982 0.09,2.181 -0.895,2.675 v 0 c -0.985,0.494 -2.188,0.093 -2.685,-0.895 v 0 l -5.21,-8.42 z"
       inkscape:connector-curvature="0"
       style="fill:url(#_lgradient_1)" />
    <path
       id="path21"
       d="m 18.115,24.789 2.939,3.768 c 0.339,0.435 0.414,1.19 0.167,1.683 l -3.274,6.548 c -0.246,0.494 -0.647,0.494 -0.894,0 L 13.779,30.24 c -0.247,-0.493 -0.171,-1.248 0.168,-1.683 l 2.938,-3.768 c 0.34,-0.436 0.891,-0.436 1.23,0 z"
       inkscape:connector-curvature="0"
       style="fill:url(#_lgradient_2)" />
  </g>
</svg>

<?xml version="1.0" encoding="UTF-8" standalone="no"?><!-- Generator: Gravit.io --><svg xmlns="http://www.w3.org/2000/svg" xmlns:xlink="http://www.w3.org/1999/xlink" style="isolation:isolate" viewBox="0 0 48 48" width="48pt" height="48pt"><linearGradient id="_lgradient_0" x1="0" y1="0.5" x2="1.191860465116279" y2="0.5125000000000001" gradientTransform="matrix(43,0,0,40,2.5,4)" gradientUnits="userSpaceOnUse"><stop offset="0%" stop-opacity="1" style="stop-color:rgb(88,0,226)"/><stop offset="100%" stop-opacity="1" style="stop-color:rgb(255,0,230)"/></linearGradient><path d=" M 13.5 8 L 13.5 8 C 14.604 8 15.5 7.104 15.5 6 L 15.5 6 C 15.5 4.896 14.604 4 13.5 4 L 13.5 4 L 7.5 4 C 4.74 4 2.5 6.24 2.5 9 L 2.5 14 L 2.5 14 C 2.5 15.104 3.396 16 4.5 16 L 4.5 16 C 5.604 16 6.5 15.104 6.5 14 L 6.5 14 L 6.5 11 C 6.5 9.344 7.844 8 9.5 8 L 13.5 8 L 13.5 8 Z  M 41.5 21 L 41.5 21 C 41.5 22.104 42.396 23 43.5 23 L 43.5 23 C 44.604 23 45.5 22.104 45.5 21 L 45.5 21 L 45.5 9 C 45.5 6.24 43.26 4 40.5 4 L 22.5 4 L 22.5 4 C 21.396 4 20.5 4.896 20.5 6 L 20.5 6 C 20.5 7.104 21.396 8 22.5 8 L 22.5 8 L 38.5 8 C 40.156 8 41.5 9.344 41.5 11 L 41.5 21 L 41.5 21 Z  M 30.5 32 L 30.5 32 C 29.396 32 28.5 31.104 28.5 30 L 28.5 30 C 28.5 28.896 29.396 28 30.5 28 L 30.5 28 L 40.5 28 C 43.26 28 45.5 30.24 45.5 33 L 45.5 39 C 45.5 41.76 43.26 44 40.5 44 L 7.5 44 C 4.74 44 2.5 41.76 2.5 39 L 2.5 24 L 2.5 24 C 2.5 22.896 3.396 22 4.5 22 L 4.5 22 C 5.604 22 6.5 22.896 6.5 24 L 6.5 24 L 6.5 37 C 6.5 38.656 7.844 40 9.5 40 L 38.5 40 C 40.156 40 41.5 38.656 41.5 37 L 41.5 35 C 41.5 33.344 40.156 32 38.5 32 L 30.5 32 Z " fill-rule="evenodd" fill="url(#_lgradient_0)"/><linearGradient id="_lgradient_1" x1="0" y1="0.5" x2="0.8860274441759262" y2="0.6031697214535364" gradientTransform="matrix(19.36,0,0,19.15,7.82,12.225)" gradientUnits="userSpaceOnUse"><stop offset="0%" stop-opacity="1" style="stop-color:rgb(255,229,59)"/><stop offset="98.69565217391305%" stop-opacity="1" style="stop-color:rgb(255,0,91)"/></linearGradient><path d=" M 12.29 29.585 L 12.29 29.585 C 11.794 30.573 10.59 30.974 9.605 30.48 L 9.605 30.48 C 8.62 29.986 8.219 28.787 8.71 27.805 L 8.71 27.805 L 15.535 15.709 C 16.62 13.786 18.381 13.786 19.466 15.709 L 26.29 27.805 L 26.29 27.805 C 26.781 28.787 26.38 29.986 25.395 30.48 L 25.395 30.48 C 24.41 30.974 23.207 30.573 22.71 29.585 L 22.71 29.585 L 17.5 21.165 L 12.29 29.585 Z " fill="url(#_lgradient_1)"/><linearGradient id="_lgradient_2" x1="1.0000000000000009" y1="1" x2="0.03793101488976114" y2="-0.14874450475548628" gradientTransform="matrix(6.712,4.713,-6.435,9.164,17.222,23.805)" gradientUnits="userSpaceOnUse"><stop offset="0%" stop-opacity="1" style="stop-color:rgb(0,196,255)"/><stop offset="83.88839793817618%" stop-opacity="1" style="stop-color:rgb(0,114,255)"/></linearGradient><path d=" M 18.115 24.789 L 21.054 28.557 C 21.393 28.992 21.468 29.747 21.221 30.24 L 17.947 36.788 C 17.701 37.282 17.3 37.282 17.053 36.788 L 13.779 30.24 C 13.532 29.747 13.608 28.992 13.947 28.557 L 16.885 24.789 C 17.225 24.353 17.776 24.353 18.115 24.789 Z " fill="url(#_lgradient_2)"/></svg>
